X: 1
T: Bogs Of Shanaheaver
M: 2/4
L: 1/8
R: polka
K: Dmaj
FE|D2 FA|d2 FG|A>B AF|ED FE|
D2 FA|d2 FG|A>B AF|ED de|
f2 gf|e2 ce|d>e dA|BA de|
f2 gf|e2 ce|d>e fd|BA FE|
